lib/brands/logos/openstack.svg

<svg xmlns="http://www.w3.org/2000/svg" fill="none" aria-hidden="true" viewBox="0 0 237 50"><g id="Openstack"><g id="Group"><path id="Vector" fill="#DA1A32" d="M16.3311 31.9283V33.4215C16.3311 34.58 17.2699 35.5188 18.4285 35.5188H37.126C38.2845 35.5188 39.2233 34.58 39.2233 33.4215V31.9283H48.6511V41.0694C48.6511 43.2028 46.9056 44.9482 44.7722 44.9482H10.7805C8.64717 44.9482 6.90167 43.2028 6.90167 41.0694V31.9283H16.3311ZM16.3294 19.8025V29.2302H6.90167V19.8025H16.3294ZM48.6511 19.8025V29.2302H39.2233V19.8025H48.6511ZM44.7722 4.08618C46.9056 4.08618 48.6511 5.83168 48.6511 7.96677V17.1062H39.2233V15.613C39.2233 14.4545 38.2845 13.5156 37.126 13.5156H18.4267C17.2682 13.5156 16.3294 14.4545 16.3294 15.613V17.1062H6.90167V7.96506C6.90167 5.83168 8.64717 4.08618 10.7805 4.08618H44.7722Z"/><path id="Vector_2" fill="#4E4540" d="M90.8502 13.5068C95.0861 13.5068 99.0834 17.063 99.0834 24.2183V24.7778C99.0834 31.892 95.1273 35.4876 90.8502 35.4876C87.7728 35.4876 85.9347 33.7679 84.656 31.8902V41.1223H80.1404V13.905H84.656V17.3033C85.9741 15.266 87.8123 13.5068 90.8502 13.5068ZM203.085 13.5068C206.123 13.5068 208.121 14.6258 209.88 16.385L207.362 19.7027C206.243 18.5442 205.004 17.5848 203.085 17.5848C200.126 17.5848 197.969 20.4218 197.969 24.4191V24.6182C197.969 28.7339 200.126 31.4921 203.204 31.4921C205.042 31.4921 206.281 30.5738 207.52 29.3347L209.957 32.3313C208.279 34.209 206.161 35.5271 202.926 35.5288C197.411 35.5288 193.414 31.0922 193.414 24.7778V24.3779C193.414 18.0636 197.53 13.5068 203.085 13.5068ZM110.579 13.5068C116.334 13.5068 119.372 18.3039 119.372 24.6577L119.372 24.788C119.371 25.1081 119.367 25.6628 119.332 26.2161H106.064C106.462 29.7723 108.66 31.6912 111.419 31.6912C113.416 31.6912 114.896 30.8124 116.295 29.4531L118.653 32.2507C116.734 34.2897 114.376 35.5271 111.218 35.5271C105.782 35.5271 101.546 31.3719 101.546 24.7366V24.4174C101.546 18.0636 105.384 13.5068 110.579 13.5068ZM67.8739 13.5051C73.4691 13.5051 77.5848 18.0619 77.5848 24.3367V24.6972C77.5848 30.9325 73.4279 35.5271 67.7949 35.5254C62.1997 35.5254 58.0823 31.0098 58.0823 24.7349V24.3762C58.0823 18.1408 62.2375 13.5051 67.8739 13.5051ZM150.199 13.5857C152.557 13.5857 155.075 14.425 157.073 15.8633L155.154 19.1809C153.556 18.1031 151.797 17.3033 150.118 17.3033C148.439 17.3033 147.441 18.2232 147.441 19.3817V19.4624C147.441 20.8612 149.119 21.5803 151.598 22.6994C154.874 24.1788 157.352 25.6961 157.352 29.0137V29.0532C157.352 33.2101 154.196 35.4876 150.12 35.4894C147.602 35.4894 144.686 34.5694 142.247 32.5322L144.365 29.2952C146.284 30.8519 148.323 31.7718 150.2 31.7718C152.078 31.7718 153.158 30.7729 153.158 29.4531V29.4136C153.158 27.8947 151.519 27.215 149.001 26.1354C145.843 24.7761 143.205 23.3378 143.205 19.8606V19.7799C143.205 15.9834 146.243 13.5857 150.199 13.5857ZM182.407 13.6664C185.165 13.6664 187.283 14.425 188.643 15.8238C190.041 17.2226 190.76 19.3011 190.76 21.9408V35.0895H186.324V32.491C185.085 34.2879 183.207 35.4876 180.449 35.4876C176.932 35.4876 173.975 33.1311 173.975 29.0137V28.8146C173.975 24.2595 177.013 22.0214 181.489 22.0214C183.487 22.0214 184.927 22.3801 186.365 22.8607V21.9802C186.365 19.1432 184.686 17.6637 181.808 17.6637C179.769 17.6637 178.091 18.3039 176.692 18.9424L175.413 15.345C177.45 14.3461 179.57 13.6664 182.407 13.6664ZM166.62 8.18792V13.9033H171.376V17.7804H166.62V29.0515C166.62 30.6905 167.46 31.3702 168.898 31.3702C169.778 31.3702 170.578 31.1711 171.337 30.7712V34.4888C170.299 35.0483 169.099 35.4087 167.578 35.4053C164.461 35.4053 162.103 34.0871 162.103 29.9697V17.7804H160.528L159.786 13.9033H162.105V8.18792H166.62ZM132.634 13.5068C136.71 13.5068 139.147 16.3833 139.147 20.9007V35.0895H134.632V22.1793C134.632 19.2221 133.233 17.583 130.835 17.583C128.477 17.583 126.838 19.3423 126.838 22.26V35.0895H122.322V13.9067H126.838V17.0235C128.038 15.1459 129.756 13.5068 132.634 13.5068ZM223.781 24.0947L230.098 35.0877H224.862L220.611 27.5016L223.781 24.0947ZM217.308 6.23303V23.2177L224.543 13.905H229.899L217.308 28.9742V35.0877H212.793V6.23303H217.308ZM182.488 25.0971C179.891 25.0971 178.372 26.4152 178.372 28.6533V28.7339C178.372 30.8519 179.85 32.0516 181.808 32.0911C184.407 32.1305 186.404 30.3713 186.404 27.9736V25.8557C185.366 25.4163 184.007 25.0971 182.488 25.0971ZM67.7915 17.5024C64.6352 17.5024 62.5962 20.4184 62.5962 24.3762V24.6165C62.5962 28.5743 64.7948 31.571 67.8721 31.5693C71.0285 31.5693 73.0674 28.6121 73.0674 24.656V24.4157C73.0674 20.4596 70.8688 17.5024 67.7915 17.5024ZM89.611 17.5041C86.8941 17.5041 84.5753 20.1403 84.5753 24.2973V24.6972C84.5753 28.8541 86.8941 31.4921 89.611 31.4938C92.3691 31.4938 94.5265 28.9365 94.5265 24.6989V24.3385C94.5265 20.1026 92.3297 17.5041 89.611 17.5041ZM110.579 17.3033C108.101 17.3033 106.343 19.5019 106.024 23.0976H114.976C114.736 19.7404 113.217 17.3033 110.579 17.3033Z"/></g></g></svg>

<svg xmlns="http://www.w3.org/2000/svg" fill="none" aria-hidden="true" viewBox="0 0 237 50"><path fill="#DA1A32" d="M16.331 31.928v1.494c0 1.158.939 2.097 2.097 2.097h18.698a2.097 2.097 0 0 0 2.097-2.097v-1.494h9.428v9.141a3.89 3.89 0 0 1-3.879 3.88H10.78a3.89 3.89 0 0 1-3.878-3.88v-9.14h9.43Zm-.002-12.126v9.428H6.902v-9.428h9.427Zm32.322 0v9.428h-9.428v-9.428h9.428ZM44.772 4.086a3.89 3.89 0 0 1 3.879 3.88v9.14h-9.428v-1.493a2.097 2.097 0 0 0-2.097-2.097h-18.7a2.097 2.097 0 0 0-2.097 2.097v1.493H6.902v-9.14a3.89 3.89 0 0 1 3.878-3.88h33.992Z"/><path fill="#4E4540" d="M90.85 13.507c4.236 0 8.233 3.556 8.233 10.711v.56c0 7.114-3.956 10.71-8.233 10.71-3.077 0-4.915-1.72-6.194-3.598v9.232H80.14V13.905h4.516v3.398c1.318-2.037 3.156-3.796 6.194-3.796Zm112.235 0c3.038 0 5.036 1.119 6.795 2.878l-2.518 3.318c-1.119-1.159-2.358-2.118-4.277-2.118-2.959 0-5.116 2.837-5.116 6.834v.2c0 4.115 2.157 6.873 5.235 6.873 1.838 0 3.077-.918 4.316-2.157l2.437 2.996c-1.678 1.878-3.796 3.196-7.031 3.198-5.515 0-9.512-4.437-9.512-10.751v-.4c0-6.314 4.116-10.871 9.671-10.871Zm-92.506 0c5.755 0 8.793 4.797 8.793 11.15v.131c-.001.32-.005.875-.04 1.428h-13.268c.398 3.556 2.596 5.475 5.355 5.475 1.997 0 3.477-.879 4.876-2.238l2.358 2.798c-1.919 2.039-4.277 3.276-7.435 3.276-5.436 0-9.672-4.155-9.672-10.79v-.32c0-6.353 3.838-10.91 9.033-10.91Zm-42.705-.002c5.595 0 9.71 4.557 9.71 10.832v.36c0 6.236-4.156 10.83-9.79 10.828-5.594 0-9.712-4.515-9.712-10.79v-.359c0-6.235 4.155-10.87 9.792-10.87Zm82.325.08c2.358 0 4.876.84 6.874 2.278l-1.919 3.318c-1.598-1.078-3.357-1.878-5.036-1.878-1.679 0-2.677.92-2.677 2.079v.08c0 1.4 1.678 2.118 4.157 3.237 3.276 1.48 5.754 2.997 5.754 6.315v.04c0 4.156-3.156 6.434-7.232 6.435-2.518 0-5.434-.92-7.873-2.957l2.118-3.237c1.919 1.557 3.958 2.477 5.835 2.477 1.878 0 2.958-1 2.958-2.319v-.04c0-1.518-1.639-2.198-4.157-3.278-3.158-1.359-5.796-2.797-5.796-6.274v-.081c0-3.797 3.038-6.194 6.994-6.194Zm32.208.081c2.758 0 4.876.759 6.236 2.158 1.398 1.399 2.117 3.477 2.117 6.117V35.09h-4.436v-2.6c-1.239 1.797-3.117 2.997-5.875 2.997-3.517 0-6.474-2.357-6.474-6.474v-.2c0-4.555 3.038-6.793 7.514-6.793 1.998 0 3.438.36 4.876.84v-.88c0-2.838-1.679-4.317-4.557-4.317-2.039 0-3.717.64-5.116 1.278l-1.279-3.597c2.037-.999 4.157-1.679 6.994-1.679ZM166.62 8.188v5.715h4.756v3.877h-4.756v11.271c0 1.64.84 2.32 2.278 2.32.88 0 1.68-.2 2.439-.6v3.718c-1.038.56-2.238.92-3.759.916-3.117 0-5.475-1.318-5.475-5.435V17.78h-1.575l-.742-3.877h2.319V8.188h4.515Zm-33.986 5.319c4.076 0 6.513 2.876 6.513 7.394V35.09h-4.515V22.18c0-2.958-1.399-4.597-3.797-4.597-2.358 0-3.997 1.76-3.997 4.677v12.83h-4.516V13.907h4.516v3.116c1.2-1.877 2.918-3.516 5.796-3.516Zm91.147 10.588 6.317 10.993h-5.236l-4.251-7.586 3.17-3.407Zm-6.473-17.862v16.985l7.235-9.313h5.356l-12.591 15.07v6.113h-4.515V6.233h4.515Zm-34.82 18.864c-2.597 0-4.116 1.318-4.116 3.556v.08c0 2.119 1.478 3.319 3.436 3.358 2.599.04 4.596-1.72 4.596-4.117v-2.118c-1.038-.44-2.397-.759-3.916-.759ZM67.791 17.502c-3.156 0-5.195 2.916-5.195 6.874v.24c0 3.958 2.199 6.955 5.276 6.953 3.156 0 5.195-2.957 5.195-6.913v-.24c0-3.956-2.198-6.914-5.275-6.914Zm21.82.002c-2.717 0-5.036 2.636-5.036 6.793v.4c0 4.157 2.32 6.795 5.036 6.797 2.758 0 4.915-2.558 4.915-6.795v-.36c0-4.236-2.196-6.835-4.915-6.835Zm20.968-.2c-2.478 0-4.236 2.198-4.555 5.794h8.952c-.24-3.358-1.759-5.795-4.397-5.795Z"/></svg>
